X:1
T:Glengairn
T:Glengairn
T:Alexander Walker
C:Alexander Walker
L:1/8
M:6/8
K:F
V:1 treble 
V:1
 FAB cAc | fef agf | FAc fef | gGG G2 A | FGA cAc | fef agf | dfd cAc | AGF F3 :| c | f2 F FAc | %10
 cAc GAc | f2 F FGA | FDD D2 c | f2 F FGA | cde fed | cBA GAc | AFF F2 c | f2 F FGA | cAc GAB | %19
 f2 F FGA | FDD D2 c | f2 F FGA | cde fed | cba gfg | aff f3 || %25

